public/svgs/close.svg

<svg height="15" viewBox="0 0 15 15" width="15" xmlns="http://www.w3.org/2000/svg"><g fill="#757c92" transform="translate(.361983 -.000002)"><path d="m7.26240689.00000093c-2.93613648-.00147898-5.58398494 1.76606808-6.70862131 4.47827985-1.12463638 2.71221176-.50453018 5.83483762 1.57110868 7.91152322 2.07563885 2.0766856 5.1979517 2.698366 7.91073014 1.5750971 2.7127784-1.1232688 4.4816605-3.7702258 4.4816605-6.70636266-.0040293-4.00568093-3.2491996-7.25248773-7.25487801-7.25853751zm0 13.78170927c-2.6405213.0014787-5.02179401-1.5881897-6.03296142-4.02743039-1.0111674-2.43924074-.45299214-5.24743331 1.41413867-7.11456412 1.86713081-1.8671308 4.67532338-2.42530607 7.11456412-1.41413866 2.43924074 1.0111674 4.02890904 3.39244012 4.02743044 6.03296141-.0040335 3.60097606-2.9221957 6.51913826-6.52317181 6.52317176z"/><path d="m9.97704103 4.54024576c-.06869509-.06926073-.16220578-.1082189-.25975609-.1082189-.09755032 0-.191061.03895817-.2597561.1082189l-2.19512195 2.19512195-2.19512195-2.19512195c-.14345934-.14345933-.37605286-.14345933-.51951219 0s-.14345934.37605286-.00000001.51951219l2.19512195 2.19512195-2.19512195 2.19512196c-.14185009.14269663-.14185009.37315702 0 .51585365.0686951.06926069.16220578.10821889.2597561.10821889s.191061-.0389582.2597561-.10821889l2.19512195-2.19512195 2.19512195 2.19512195c.06904347.06848289.1625111.10665979.2597561.10609759.09724499.0005622.19071262-.0376147.25975609-.10609759.14185007-.14269663.14185007-.37315702 0-.51585365l-2.19512195-2.19512196 2.19512195-2.19512195c.06926077-.06869509.10821887-.16220578.10821887-.25975609 0-.09755032-.0389581-.191061-.10821887-.2597561z"/></g></svg>

<?xml version="1.0" encoding="UTF-8"?>
<svg width="15px" height="15px" viewBox="0 0 15 15" version="1.1" xmlns="http://www.w3.org/2000/svg" xmlns:xlink="http://www.w3.org/1999/xlink">
    <!-- Generator: Sketch 63.1 (92452) - https://sketch.com -->
    <desc>Created with Sketch.</desc>
    <g id="Page-1" stroke="none" stroke-width="1" fill="none" fill-rule="evenodd">
        <g id="Home-menu" transform="translate(-30.000000, -158.000000)" fill="#757C92" fill-rule="nonzero">
            <g id="Group-3" transform="translate(30.361983, 156.999998)">
                <g id="Group-4" transform="translate(0.000000, 1.000000)">
                    <path d="M7.26240689,9.27426028e-07 C4.32627041,-0.00147805167 1.67842195,1.76606901 0.553785578,4.47828078 C-0.570850799,7.19049254 0.0492554041,10.3131184 2.12489426,12.389804 C4.20053311,14.4664896 7.32284596,15.08817 10.0356244,13.9649011 C12.7484028,12.8416323 14.5172849,10.1946753 14.5172849,7.25853844 C14.5132556,3.25285751 11.2680853,0.00605071004 7.26240689,9.27426028e-07 Z M7.26240689,13.7817102 C4.62188559,13.7831889 2.24061288,12.1935205 1.22944547,9.75427981 C0.218278071,7.31503907 0.776453334,4.5068465 2.64358414,2.63971569 C4.51071495,0.772584887 7.31890752,0.214409624 9.75814826,1.22557703 C12.197389,2.23674443 13.7870573,4.61801715 13.7855787,7.25853844 C13.7815452,10.8595145 10.863383,13.7776767 7.26240689,13.7817102 Z" id="Shape"></path>
                    <path d="M9.97704103,4.54024576 C9.90834594,4.47098503 9.81483525,4.43202686 9.71728494,4.43202686 C9.61973462,4.43202686 9.52622394,4.47098503 9.45752884,4.54024576 L7.26240689,6.73536771 L5.06728494,4.54024576 C4.9238256,4.39678643 4.69123208,4.39678643 4.54777275,4.54024576 C4.40431342,4.68370509 4.40431341,4.91629862 4.54777274,5.05975795 L6.74289469,7.2548799 L4.54777274,9.45000186 C4.40592265,9.59269849 4.40592265,9.82315888 4.54777274,9.96585551 C4.61646784,10.0351162 4.70997852,10.0740744 4.80752884,10.0740744 C4.90507916,10.0740744 4.99858984,10.0351162 5.06728494,9.96585551 L7.26240689,7.77073356 L9.45752884,9.96585551 C9.52657231,10.0343384 9.62003994,10.0725153 9.71728494,10.0719531 C9.81452993,10.0725153 9.90799756,10.0343384 9.97704103,9.96585551 C10.1188911,9.82315888 10.1188911,9.59269849 9.97704103,9.45000186 L7.78191908,7.2548799 L9.97704103,5.05975795 C10.0463018,4.99106286 10.0852599,4.89755217 10.0852599,4.80000186 C10.0852599,4.70245154 10.0463018,4.60894086 9.97704103,4.54024576 Z" id="Path"></path>
                </g>
            </g>
        </g>
    </g>
</svg>
